src/img/phone.svg

<?xml version="1.0" encoding="UTF-8" standalone="no"?>
<svg width="590px" height="1206px" viewBox="0 0 590 1206" version="1.1" xmlns="http://www.w3.org/2000/svg" xmlns:xlink="http://www.w3.org/1999/xlink">
    <!-- Generator: sketchtool 3.7 (28169) - http://www.bohemiancoding.com/sketch -->
    <title>B33E3977-4699-4B37-ADDD-824F20665A00</title>
    <desc>Created with sketchtool.</desc>
    <defs></defs>
    <g id="Symbols" stroke="none" stroke-width="1" fill="none" fill-rule="evenodd">
        <g id="phone">
            <g id="phone-copy">
                <g id="phone">
                    <path d="M492.568429,0 C494.200333,0 495.82208,0.0418592871 497.433293,0.12520075 C510.702951,0.807771107 523.334593,0.148581614 536.276215,3.99737336 C548.94999,7.76659475 560.853333,14.6077598 569.433054,24.821803 C581.573019,39.2741932 585.982695,58.7127411 586,78.0619137 C585.998495,79.919561 585.876987,1112.08737 586,1112.47655 C585.312704,1133.25158 584.308658,1156.11089 573.129478,1174.12434 C565.338623,1186.67685 553.018841,1196.14346 538.856865,1200.30487 C525.605641,1204.19892 511.720163,1205.64363 496.611322,1205.91364 C495.270588,1205.97096 493.923082,1206 492.568429,1206 L488.891567,1206 L93.0567109,1206 C78.488076,1206 62.7999054,1204.77288 48.7929192,1200.63183 C30.4368229,1195.20521 15.754203,1183.2787 8.09614265,1165.53829 C4.41965675,1157.02124 1.87607254,1148.90001 0.938036272,1138.76946 C-3.56920989e-10,1128.63891 0.127351006,1120.89479 6.91997662e-14,1111.72233 C6.91997662e-14,1111.72233 0.138061017,85.837182 6.91997662e-14,83.7185741 C0.0485282595,82.0298724 1.80686644e-09,80.1861536 2.64120418e-14,78.0619137 C-3.56908785e-10,58.4704389 4.21275332,38.6847692 16.8011343,24.1392326 C24.6544362,15.0651951 35.2411206,8.57059475 46.6050094,4.75838274 C60.4201397,0.124069418 73.895196,0.864714822 88.1542281,0.126709193 C89.7774796,0.0426135084 91.4120167,0 93.0567109,0 L492.568429,0 Z" id="bg" fill="#DFE4E7"></path>
                    <path d="M586,394 L588,394 C589.104569,394 590,394.744409 590,395.666946 L590,466.333054 C590,467.253683 589.11227,468 588,468 L586,468 L586,394 L586,394 Z M586,500 L588,500 C589.104569,500 590,500.756648 590,501.691558 L590,592.308442 C590,593.242664 589.11227,594 588,594 L586,594 L586,500 L586,500 Z" id="Combined-Shape" fill="#CCD1D5"></path>
                    <path d="M227,64 C227,60.6862915 229.693448,58 233.002397,58 L430.997603,58 C434.312635,58 437,60.6930342 437,64 C437,67.3137085 434.306552,70 430.997603,70 L233.002397,70 C229.687365,70 227,67.3069658 227,64 L227,64 Z M149,64.0007791 C149,60.1343556 152.141873,57 156,57 C159.865993,57 163,60.142223 163,64.0007791 C163,67.8672026 159.858127,71.0015582 156,71.0015582 C152.134007,71.0015582 149,67.8593352 149,64.0007791 L149,64.0007791 Z" id="Combined-Shape" fill="#CCD1D5"></path>
                    <path d="M192,1147 C192,1143.68629 194.683972,1141 197.990655,1141 L388.009345,1141 C391.317893,1141 394,1143.69303 394,1147 C394,1150.31371 391.316028,1153 388.009345,1153 L197.990655,1153 C194.682107,1153 192,1150.30697 192,1147 L192,1147 Z" id="Combined-Shape" fill="#CCD1D5"></path>
                </g>
            </g>
        </g>
    </g>
</svg>

<svg width="590" height="1206" viewBox="0 0 590 1206" xmlns="http://www.w3.org/2000/svg"><title>B33E3977-4699-4B37-ADDD-824F20665A00</title><g fill="none" fill-rule="evenodd"><path d="M492.568 0c1.632 0 3.254.042 4.865.125 13.27.683 25.902.024 38.843 3.872 12.674 3.77 24.577 10.61 33.157 20.825 12.14 14.452 16.55 33.89 16.567 53.24-.002 1.858-.123 1034.025 0 1034.415-.687 20.775-1.691 43.634-12.87 61.647-7.791 12.553-20.111 22.02-34.273 26.18-13.251 3.895-27.137 5.34-42.246 5.61-1.34.057-2.688.086-4.043.086H93.057c-14.569 0-30.257-1.227-44.264-5.368-18.356-5.427-33.039-17.353-40.697-35.094-3.676-8.517-6.22-16.638-7.158-26.769-.938-10.13-.81-17.874-.938-27.047 0 0 .138-1025.885 0-1028.003.049-1.69 0-3.533 0-5.657C0 58.47 4.213 38.685 16.801 24.139c7.853-9.074 18.44-15.568 29.804-19.38C60.42.123 73.895.864 88.155.126A94.752 94.752 0 0 1 93.056 0h399.511z" fill="#DFE4E7"/><path d="M586 394h2c1.105 0 2 .744 2 1.667v70.666c0 .92-.888 1.667-2 1.667h-2v-74zm0 106h2c1.105 0 2 .757 2 1.692v90.616c0 .935-.888 1.692-2 1.692h-2v-94zM227 64c0-3.314 2.693-6 6.002-6h197.996A6.006 6.006 0 0 1 437 64c0 3.314-2.693 6-6.002 6H233.002A6.006 6.006 0 0 1 227 64zm-78 0c0-3.866 3.142-7 7-7 3.866 0 7 3.142 7 7 0 3.867-3.142 7.002-7 7.002-3.866 0-7-3.143-7-7.001zM192 1147c0-3.314 2.684-6 5.99-6h190.02c3.308 0 5.99 2.693 5.99 6 0 3.314-2.684 6-5.99 6H197.99c-3.308 0-5.99-2.693-5.99-6z" fill="#CCD1D5"/></g></svg>
